html/dist/img/svg/bookkeeping.svg

<svg width="32" height="22" viewBox="0 0 32 22" fill="none" xmlns="http://www.w3.org/2000/svg">
<path d="M1.43032 19.838L4.65336 11.1345C5.16599 9.75016 6.52562 8.82609 8.0498 8.82609M1.43032 19.838C1.22061 20.4043 1.65592 21 2.27943 21H24.9751C25.7372 21 26.417 20.538 26.6733 19.8458L29.8934 11.1502C30.3128 10.0176 29.4422 8.82609 28.1952 8.82609H8.0498M1.43032 19.838C1.36374 20.0177 1.36218 20.2005 1.411 20.3662C1.15422 20.0657 1 19.6807 1 19.2609V2.73913C1 1.77864 1.80735 1 2.80328 1H7.77663C8.35827 1 8.90419 1.27057 9.24281 1.72666L11.1325 4.27192C11.2286 4.40143 11.3837 4.47826 11.5488 4.47826H24.4426C25.4385 4.47826 26.2459 5.2569 26.2459 6.21739V8.82609H8.0498" stroke="#FF4978" stroke-width="2" stroke-linecap="round" stroke-linejoin="round"/>
</svg>

<svg width="32" height="22" viewBox="0 0 32 22" fill="none" xmlns="http://www.w3.org/2000/svg"><path d="M1.43 19.838l3.223-8.704C5.166 9.75 6.526 8.826 8.05 8.826M1.43 19.838c-.21.566.226 1.162.85 1.162h22.695c.762 0 1.442-.462 1.698-1.154l3.22-8.696c.42-1.132-.45-2.324-1.698-2.324H8.05M1.43 19.838a.832.832 0 00-.019.528A1.695 1.695 0 011 19.261V2.739C1 1.78 1.807 1 2.803 1h4.974c.581 0 1.127.27 1.466.727l1.89 2.545c.096.13.25.206.416.206h12.894c.995 0 1.803.779 1.803 1.74v2.608H8.05" stroke="#FF4978" stroke-width="2" stroke-linecap="round" stroke-linejoin="round"/></svg>
